!!!COM: Stadler, Maximilian
!!!CDT: 1748///-1833///
!!!COA: Haydn, Joseph
!!!OTL@@IT: Gioco filarmonico
!!!OTL@EN: Philharmonic Joke
!!!OTA@@IT: o sia maniera facile per comporre un infinito numero de minuetti e trio anche senza sapere il contrapunto
!!!OTA@EN: or the Art of Composing an Infinite Number of Minutes Without the Least Knowledge of Counterpoint
!!!PDT: 1781///
!!!PPR: Artaria
!!!SML: Gesellschaft der Musikfreundes, Vienna
!!!PPR2: Luigi Marescalchi
!!!PPP2: Napoli
!!!PDT2: 1790///
**kern	**kern	**kern
*Icello	*Ivioln	*Ivioln
*>[A,A,B,B,A]	*>[A,A,B,B,A]	*>[A,A,B,B,A]
*>norep[A,B]	*>norep[A,B]	*>norep[A,B]
*>A	*>A	*>A
*k[]	*k[]	*k[]
*M3/4	*M3/4	*M3/4
*MM120	*MM120	*MM120
!!section:  I
!!measure:  A
!!diceroll: 2
=96	=96	=96
4G	8.g	8.gg
.	16cc	16ccc
4E	8.e	8.ee
.	16g	16gg
4C	8.c	8.cc
.	16e	16ee
!!section:  I
!!measure:  B
!!diceroll: 4
=95	=95	=95
4E	2.G	4cc
4BB	.	16dd
.	.	16ee
.	.	16ff
.	.	16dd
4C	.	4ee
!!section:  I
!!measure:  C
!!diceroll: 10
=42	=42	=42
4F	4d	8.a
.	.	16cc
4D	4f	8.b
.	.	16dd
4E	4g	8.cc
.	.	16ee
!!section:  I
!!measure:  D
!!diceroll: 8
=53	=53	=53
2G	4r	8cc
.	.	8b
.	4f	8dd
.	.	8b
4c	4e	4cc
!!section:  I
!!measure:  E
!!diceroll: 12
=28	=28	=28
4C	4g	8ee
.	.	8cc
4c	4e	8g#
.	.	8a
4r	4r	8b
.	.	8cc
!!section:  I
!!measure:  F
!!diceroll: 4
=55	=55	=55
4GG	8r	8r
.	8g	8b
4r	8a	8cc
.	8b	8dd
4r	8cc	8ee
.	8b	8dd
!!section:  I
!!measure:  G
!!diceroll: 7
=118	=118	=118
2C	2e	8r
.	.	8g#
.	.	8a
.	.	8cc
4D	8c	8f#
.	8f#	8a
!!section:  I
!!measure:  H
!!diceroll: 8
=127	=127	=127
8G	2.g	2.g
8GG	.	.
8BB	.	.
8D	.	.
4G	.	.
*>B	*>B	*>B
!!section:  II
!!measure:  A
!!diceroll: 8
=16	=16	=16
4C#	12c#	2a
.	12e	.
.	12a	.
4C#	12c#	.
.	12e	.
.	12a	.
4C#	12c#	16aa
.	.	16gg
.	12e	.
.	.	16ff
.	12a	.
.	.	16ee
!!section:  II
!!measure:  B
!!diceroll: 7
=71	=71	=71
8F	4dd	8aa
8F	.	8a
8E	4cc#	8gg
8E	.	8a
8D	4dd	4ff
8D	.	.
!!section:  II
!!measure:  C
!!diceroll: 8
=57	=57	=57
4B	4d	4f
4r	4r	16ff
.	.	16ee
.	.	16dd
.	.	16cc
4G	4d	4b
!!section:  II
!!measure:  D
!!diceroll: 8
=175	=175	=175
4r	4r	16dd
.	.	16cc
.	.	16b
.	.	16cc
4C	12e	2g
.	12g	.
.	12cc	.
4C	12e	.
.	12g	.
.	12cc	.
!!section:  II
!!measure:  E
!!diceroll: 7
=101	=101	=101
4F	4d	12aa
.	.	12ee
.	.	12ff
4r	4r	12aa
.	.	12ee
.	.	12ff
4r	4r	12aa
.	.	12ff
.	.	12dd
!!section:  II
!!measure:  F
!!diceroll: 6
=136	=136	=136
4r	4r	[4g
4F	4d	16g]
.	.	16a
.	.	16b
.	.	16cc
4E	4c	16dd
.	.	16ee
.	.	16ff#
.	.	16gg
!!section:  II
!!measure:  G
!!diceroll: 7
=23	=23	=23
4F	4c	16a
.	.	16aa
.	.	16gg
.	.	16ff
4G	4c	4ee
4G	4B	4dd
!!section:  II
!!measure:  H
!!diceroll: 5
=170	=170	=170
4C	2.cc	2.cc
4G	.	.
4c	.	.
*-	*-	*-
!!!END: 2004/11/01/
